web/wp-content/themes/cncf-twenty-two/images/map-markers/kcd-event.svg

<svg width="54" height="65" viewBox="0 0 54 65" fill="none" xmlns="http://www.w3.org/2000/svg">
<path d="M47 52.7021H34.5L27 61.9975L18.6667 52.7021H7C4.24167 52.7021 2 50.429 2 47.6319V7.07021C2 4.27315 4.24167 2 7 2H47C49.7583 2 52 4.27315 52 7.07021V47.6319C52 50.429 49.7583 52.7021 47 52.7021Z" fill="white" stroke="black" stroke-width="3"/>
<path d="M43.9459 30.1127L41.0249 17.4907C40.9463 17.1641 40.7959 16.859 40.5844 16.5973C40.3729 16.3356 40.1057 16.1239 39.802 15.9774L27.978 10.3614C27.6715 10.2159 27.3362 10.1404 26.9967 10.1404C26.6571 10.1404 26.3219 10.2159 26.0154 10.3614L14.1937 15.9804C13.8899 16.1268 13.6226 16.3385 13.4111 16.6001C13.1996 16.8618 13.0491 17.167 12.9705 17.4935L10.0541 30.1153C9.98219 30.4343 9.98196 30.7652 10.0535 31.0844C10.0745 31.1816 10.102 31.2773 10.1358 31.3709C10.1928 31.5306 10.2684 31.6832 10.361 31.8256C10.401 31.8865 10.4433 31.9457 10.4892 32.0031L14.6936 37.2031C14.7025 37.1344 14.7102 37.0656 14.7196 36.9969C14.793 36.459 14.6242 35.9853 14.4459 35.5037C14.1424 34.684 13.731 33.905 13.6137 33.0177C13.4804 32.0102 13.5132 31.0009 13.5291 29.9931C13.538 29.4286 13.3826 28.9167 13.2127 28.3987C12.9862 27.7083 12.6826 27.0411 12.58 26.3135C12.5288 25.9501 12.5166 25.5902 12.6307 25.2322C12.7028 25.0059 12.8307 24.829 13.0731 24.8243C13.3183 24.8195 13.4693 25.0037 13.528 25.2205C13.6488 25.667 13.7502 26.1192 13.8449 26.5721C13.981 27.2203 14.1867 27.852 14.4585 28.4564C14.6355 28.8517 14.7818 28.858 15.0513 28.5168C15.1796 28.3424 15.2474 28.1312 15.2445 27.9151C15.3031 26.6929 15.3736 25.4712 15.4315 24.249C15.46 23.8526 15.544 23.462 15.6809 23.0886C15.7751 22.8097 15.988 22.5687 16.3075 22.6193C16.6398 22.672 16.6597 22.9891 16.6373 23.2546C16.545 24.4761 16.5171 25.7016 16.5537 26.926C16.5591 27.1865 16.542 27.4528 16.7483 27.7979C16.7587 26.1647 17.2349 24.7097 17.4301 23.2091C17.4476 23.0113 17.5036 22.8188 17.5949 22.6422C17.7402 22.3855 17.9826 22.2613 18.267 22.3181C18.5647 22.3777 18.575 22.6466 18.5475 22.8777C18.448 23.7141 18.3092 24.5463 18.2246 25.3841C18.135 26.2705 18.0904 27.1614 18.0205 28.1284C18.2708 27.939 18.2716 27.7114 18.3243 27.5284C18.5528 26.7347 18.7875 25.9417 18.8683 25.1132C18.8987 24.9004 18.9552 24.6922 19.0365 24.4931C19.1431 24.1976 19.3854 24.0009 19.6815 24.0455C19.9988 24.0934 19.9515 24.4164 19.9587 24.6598C19.9901 25.7259 19.7604 26.7627 19.6117 27.81C19.4255 29.0549 19.4074 30.3189 19.5579 31.5685C19.5807 31.7158 19.6194 31.8602 19.6731 31.9993C19.8595 32.5207 20.0985 32.603 20.5787 32.3119C20.7094 32.2386 20.8318 32.1515 20.9438 32.0522C21.677 31.3521 22.5067 31.4543 23.3653 31.7462C23.5578 31.8056 23.7209 31.9347 23.8223 32.108C24.048 32.4936 23.9454 32.7697 23.5094 32.7302C22.2671 32.6177 21.5482 33.3475 20.867 34.1995C20.4433 34.7295 19.8066 34.9386 19.1995 35.1441C18.6839 35.3186 18.5229 35.6045 18.5318 36.1278C18.5648 38.065 18.5566 40.0029 18.5694 41.9405C18.5695 41.9603 18.5712 41.9801 18.5719 41.9999L18.6721 42.1238C18.7078 42.1678 18.7472 42.208 18.7863 42.2489C18.9146 42.3849 19.0596 42.5044 19.2178 42.6046C19.4179 42.7299 19.636 42.8242 19.8645 42.8843C20.0519 42.9355 20.2453 42.962 20.4396 42.9632H20.5669L25.6389 42.906C25.6527 41.9492 25.6664 40.9924 25.6801 40.0356C25.6993 38.6049 26.1376 37.2357 26.3044 35.8282C26.5233 33.9443 26.519 32.0412 26.2914 30.1583C26.2211 29.5618 25.9819 29.1538 25.3561 28.9209C24.7086 28.68 24.3803 28.016 23.9185 27.5333C22.5366 26.089 21.523 24.3344 20.0479 22.9666C19.8933 22.8232 19.8296 22.6406 19.9282 22.4452C19.9893 22.3125 20.0902 22.202 20.2171 22.1288C20.3439 22.0556 20.4905 22.0233 20.6366 22.0364C21.2474 22.0669 21.7372 22.3561 22.1525 22.7845C22.621 23.2677 23.0773 23.7646 23.6171 24.1721C24.1986 24.611 24.3855 24.5465 24.6872 23.9026C25.2423 22.7177 25.269 21.5091 24.9477 20.2617C24.6143 18.9671 24.1371 17.7008 24.2026 16.3259C24.2407 15.524 24.4233 15.0495 24.8403 15.0672C25.5365 15.0967 25.4521 15.7351 25.5316 16.1548C25.7925 17.531 26.0409 18.9069 26.5572 20.2173C26.6273 20.3952 26.6325 20.7145 26.9183 20.6408C27.1462 20.582 27.0371 20.3149 27.024 20.1332C26.9067 18.5101 26.7458 16.887 27.0416 15.2654C27.0931 14.9834 27.1155 14.692 27.3178 14.4599C27.4924 14.2596 27.6996 14.1167 27.9732 14.1982C28.2235 14.2727 28.3337 14.4859 28.3384 14.7313C28.3502 15.3436 28.3784 15.9583 28.3394 16.5682C28.2641 17.745 28.4844 18.8969 28.5872 20.0585C28.6005 20.2084 28.5875 20.4644 28.8009 20.4685C28.9771 20.472 29.0708 20.2518 29.1093 20.0891C29.4008 18.8585 29.8617 17.67 30.0316 16.4091C30.075 16.087 30.1152 15.7646 30.2727 15.4664C30.4072 15.2117 30.5878 15.0992 30.8794 15.1464C31.194 15.1974 31.3615 15.3701 31.3741 15.6839C31.3867 15.8364 31.3821 15.9899 31.3605 16.1414C31.0684 17.6858 30.9334 19.2608 30.4564 20.7695C30.4357 20.8435 30.4205 20.919 30.4111 20.9952C30.3846 21.1647 30.3175 21.388 30.4836 21.4724C30.6916 21.578 30.8285 21.3666 30.9488 21.2222C31.5767 20.4691 32.1803 19.6998 32.5912 18.7997C32.6603 18.6418 32.7562 18.4968 32.8746 18.3711C33.0541 18.1891 33.2769 18.0532 33.5477 18.1718C33.8671 18.3118 33.7561 18.5751 33.715 18.8191C33.6601 19.2207 33.5106 19.6037 33.2786 19.9369C31.9461 21.729 31.5089 23.7787 31.5193 25.9509C31.5174 26.6039 31.3634 27.2475 31.0694 27.8313C30.7941 28.4026 30.7789 28.9906 30.8151 29.6197C30.9333 31.6719 31.3516 33.683 31.5915 35.7179C31.8759 38.1309 31.9868 40.5433 31.7993 42.9606L33.5618 42.9602C33.6408 42.9599 33.7197 42.9553 33.7982 42.9464C33.9108 42.9337 34.0223 42.9127 34.1317 42.8833C34.2101 42.8628 34.2874 42.8382 34.3632 42.8096C34.4224 42.7871 34.4815 42.7646 34.5384 42.7374C34.6238 42.6967 34.7066 42.6509 34.7864 42.6003C34.9923 42.4715 35.1757 42.3101 35.3292 42.1224L35.4313 41.8935C35.6419 39.3961 35.3873 36.9021 35.2619 34.4157C35.1948 33.0871 33.9579 31.541 32.3011 31.5026C31.9982 31.4955 31.5838 31.5893 31.5794 31.1011C31.5757 30.6883 31.8519 30.4447 32.2543 30.3818C32.7728 30.3036 33.3027 30.3565 33.7951 30.5356C34.8124 30.8898 35.3922 30.3855 35.1118 29.3034C34.812 28.1447 34.6144 26.9621 34.5214 25.7692C34.4962 25.4498 34.4379 25.1342 34.5296 24.8179C34.6184 24.5113 34.7611 24.2439 35.1344 24.2607C35.5361 24.2788 35.5024 24.6246 35.5481 24.8844C35.724 25.8858 35.9492 26.8704 36.4533 27.8818C36.6835 27.4906 36.7125 27.1322 36.7353 26.8045C36.7884 26.0426 37.0424 25.3198 37.1195 24.5648C37.1407 24.4268 37.1904 24.2947 37.2655 24.1768C37.3922 23.9608 37.5687 23.7876 37.8474 23.8464C38.1608 23.9126 38.2565 24.1581 38.2364 24.4385C38.1852 25.1545 38.1131 25.869 38.0542 26.5845C38.0198 27.0017 37.9948 27.4198 38.0701 27.8695C38.3515 27.0672 38.6327 26.2648 38.9137 25.4623C39.0537 25.0605 39.0933 24.4664 39.7114 24.6518C40.2644 24.8177 39.9643 25.3373 39.8925 25.6892C39.6972 26.6468 39.4449 27.5929 39.2253 28.5458C39.1734 28.771 39.063 29.0527 39.3477 29.1867C39.6044 29.3074 39.7446 29.0463 39.8826 28.8941C40.4474 28.2711 40.9866 27.625 41.5577 27.008C41.7167 26.8362 41.8971 26.52 42.1985 26.731C42.4717 26.9223 42.3986 27.2277 42.2805 27.4963C42.059 27.9893 41.7631 28.4458 41.403 28.85C40.8698 29.4611 40.4754 30.1367 40.3446 30.9639C40.27 31.4985 40.1191 32.0199 39.8964 32.5121C39.2454 33.8705 39.2125 35.2645 39.4323 36.7183C39.4462 36.8105 39.4591 36.9028 39.4726 36.995L43.5092 31.9997C43.6612 31.8101 43.7806 31.5968 43.8626 31.3684C43.8969 31.2745 43.9249 31.1784 43.9464 31.0809C44.018 30.762 44.0179 30.4314 43.9459 30.1127Z" fill="#0828B2"/>
</svg>

<svg width="54" height="65" viewBox="0 0 54 65" fill="none" xmlns="http://www.w3.org/2000/svg"><path d="M47 52.702H34.5L27 61.998l-8.333-9.296H7c-2.758 0-5-2.273-5-5.07V7.07C2 4.273 4.242 2 7 2h40c2.758 0 5 2.273 5 5.07v40.562c0 2.797-2.242 5.07-5 5.07Z" fill="#fff" stroke="#000" stroke-width="3"/><path d="M43.946 30.113 41.025 17.49a2.264 2.264 0 0 0-1.223-1.514L27.978 10.36a2.289 2.289 0 0 0-1.963 0l-11.821 5.62a2.278 2.278 0 0 0-1.224 1.513l-2.916 12.621a2.21 2.21 0 0 0 .082 1.256 2.176 2.176 0 0 0 .353.632l4.205 5.2c.008-.069.016-.137.026-.206.073-.538-.096-1.012-.274-1.493-.304-.82-.715-1.599-.832-2.486-.134-1.008-.1-2.017-.085-3.025.009-.564-.146-1.076-.316-1.594-.227-.69-.53-1.358-.633-2.085-.051-.364-.063-.724.05-1.082.073-.226.2-.403.443-.408.245-.005.396.18.455.396.12.447.222.9.317 1.352.136.648.342 1.28.614 1.884.177.396.323.402.592.06a.993.993 0 0 0 .194-.6c.058-1.223.129-2.445.187-3.667.028-.396.112-.787.249-1.16.094-.28.307-.52.627-.47.332.053.352.37.33.636a34.89 34.89 0 0 0-.084 3.671c.005.26-.012.527.194.872.01-1.633.487-3.088.682-4.589.018-.198.074-.39.165-.567.145-.256.388-.38.672-.324.298.06.308.329.28.56-.099.836-.238 1.668-.322 2.506-.09.886-.135 1.777-.205 2.744.25-.189.252-.417.304-.6.229-.793.463-1.586.544-2.415a2.62 2.62 0 0 1 .169-.62c.106-.295.348-.492.645-.447.317.047.27.37.277.614.031 1.066-.199 2.103-.347 3.15a14.05 14.05 0 0 0-.054 3.759c.023.147.061.291.115.43.187.522.426.604.906.313.13-.073.253-.16.365-.26.733-.7 1.563-.598 2.421-.306.193.06.356.189.457.362.226.386.123.662-.313.622-1.242-.112-1.96.617-2.642 1.47-.424.53-1.06.739-1.668.944-.515.175-.676.46-.667.984.033 1.937.025 3.875.037 5.813 0 .02.002.04.003.059l.1.124c.036.044.075.084.114.125a2.244 2.244 0 0 0 1.078.635c.188.051.381.078.576.08h.127l5.072-.058.041-2.87c.02-1.431.458-2.8.624-4.208a24.084 24.084 0 0 0-.013-5.67c-.07-.596-.31-1.004-.935-1.237-.647-.241-.976-.905-1.438-1.388-1.381-1.444-2.395-3.199-3.87-4.566-.155-.144-.218-.326-.12-.522a.706.706 0 0 1 .709-.409c.61.03 1.1.32 1.515.748.469.484.925.98 1.465 1.388.582.439.768.375 1.07-.27.555-1.184.582-2.393.26-3.64-.333-1.295-.81-2.561-.744-3.936.038-.802.22-1.277.637-1.259.697.03.612.668.692 1.088.26 1.376.509 2.752 1.025 4.062.07.178.076.498.361.424.228-.059.12-.326.106-.508-.117-1.623-.278-3.246.018-4.868.051-.282.073-.573.276-.805.174-.2.382-.343.655-.262.25.075.36.288.365.533.012.613.04 1.227.001 1.837-.075 1.177.145 2.329.248 3.49.014.15 0 .406.214.41.176.004.27-.216.308-.379.292-1.23.753-2.419.923-3.68.043-.322.083-.644.24-.943.135-.254.316-.367.607-.32.315.051.482.224.495.538.013.152.008.306-.014.457-.292 1.545-.427 3.12-.904 4.629a1.69 1.69 0 0 0-.045.225c-.026.17-.094.393.073.477.208.106.344-.105.465-.25.628-.753 1.231-1.522 1.642-2.422.07-.158.165-.303.284-.429.18-.182.402-.318.673-.2.32.14.208.404.167.648a2.564 2.564 0 0 1-.436 1.118c-1.333 1.792-1.77 3.842-1.76 6.014a4.207 4.207 0 0 1-.45 1.88c-.275.572-.29 1.16-.254 1.789.118 2.052.537 4.063.776 6.098.285 2.413.396 4.825.208 7.243h1.763a2.171 2.171 0 0 0 .57-.078 2.314 2.314 0 0 0 .654-.283c.206-.129.39-.29.543-.478l.102-.228c.21-2.498-.044-4.992-.17-7.478-.066-1.329-1.303-2.875-2.96-2.913-.303-.008-.717.086-.722-.402-.003-.413.273-.656.675-.72a3.139 3.139 0 0 1 1.541.155c1.017.354 1.597-.15 1.317-1.233a20.457 20.457 0 0 1-.59-3.534c-.026-.32-.084-.635.008-.951.088-.307.231-.574.604-.557.402.018.368.364.414.623.176 1.002.401 1.986.905 2.998.23-.391.26-.75.282-1.078.053-.761.307-1.484.385-2.24a.97.97 0 0 1 .146-.387c.126-.216.303-.39.581-.33.314.066.41.311.39.591-.052.716-.124 1.431-.183 2.146-.034.418-.06.836.016 1.285l.844-2.407c.14-.401.18-.996.797-.81.553.166.253.685.181 1.037-.195.958-.447 1.904-.667 2.857-.052.225-.162.507.123.64.256.121.397-.14.535-.292.564-.623 1.104-1.269 1.675-1.886.159-.172.34-.488.64-.277.274.191.2.497.083.765-.222.493-.518.95-.878 1.354-.533.611-.928 1.287-1.058 2.114a5.65 5.65 0 0 1-.449 1.548c-.65 1.358-.684 2.752-.464 4.206l.04.277L43.51 32a2.195 2.195 0 0 0 .437-.92 2.192 2.192 0 0 0 0-.967Z" fill="#0828B2"/></svg>
